SVG_Azure_All/API Management Pricing Tier.svg

<?xml version="1.0" encoding="UTF-8" standalone="no"?>
<!-- Generated by Microsoft Visio, SVG Export API Management Pricing Tier.svg Page-1 -->

<svg
   xmlns:dc="http://purl.org/dc/elements/1.1/"
   xmlns:cc="http://creativecommons.org/ns#"
   xmlns:rdf="http://www.w3.org/1999/02/22-rdf-syntax-ns#"
   xmlns:svg="http://www.w3.org/2000/svg"
   xmlns="http://www.w3.org/2000/svg"
   xmlns:xlink="http://www.w3.org/1999/xlink"
   xmlns:sodipodi="http://sodipodi.sourceforge.net/DTD/sodipodi-0.dtd"
   xmlns:inkscape="http://www.inkscape.org/namespaces/inkscape"
   width="0.85908973in"
   height="0.70867413in"
   viewBox="0 0 61.854486 51.024899"
   xml:space="preserve"
   class="st4"
   version="1.1"
   id="svg50"
   sodipodi:docname="API Management Pricing Tier.svg"
   style="font-size:12px;overflow:visible;color-interpolation-filters:sRGB;fill:none;fill-rule:evenodd;stroke-linecap:square;stroke-miterlimit:3"
   inkscape:version="0.92.5 (2060ec1f9f, 2020-04-08)"><metadata
   id="metadata54"><rdf:RDF><cc:Work
       rdf:about=""><dc:format>image/svg+xml</dc:format><dc:type
         rdf:resource="http://purl.org/dc/dcmitype/StillImage" /></cc:Work></rdf:RDF></metadata><sodipodi:namedview
   pagecolor="#ffffff"
   bordercolor="#666666"
   borderopacity="1"
   objecttolerance="10"
   gridtolerance="10"
   guidetolerance="10"
   inkscape:pageopacity="0"
   inkscape:pageshadow="2"
   inkscape:window-width="640"
   inkscape:window-height="480"
   id="namedview52"
   showgrid="false"
   inkscape:zoom="1.6558112"
   inkscape:cx="41.237571"
   inkscape:cy="25.914215"
   inkscape:window-x="0"
   inkscape:window-y="0"
   inkscape:window-maximized="0"
   inkscape:current-layer="svg50" />
	<style
   type="text/css"
   id="style2">
	<![CDATA[
		.st1 {fill:url(#grad0-6);stroke:none;stroke-linecap:butt;stroke-width:21.8571}
		.st2 {fill:#50e6ff;stroke:none;stroke-linecap:butt;stroke-width:21.8571}
		.st3 {fill:#ffffff;stroke:none;stroke-linecap:butt;stroke-width:21.8571}
		.st4 {fill:none;fill-rule:evenodd;font-size:12px;overflow:visible;stroke-linecap:square;stroke-miterlimit:3}
	]]>
	</style>

	<defs
   id="Patterns_And_Gradients">
		<linearGradient
   id="grad0-6"
   x1="0"
   y1="0"
   x2="1"
   y2="0"
   gradientTransform="rotate(-90,0.5,0.5)">
			<stop
   offset="0"
   stop-color="#0078d4"
   stop-opacity="1"
   id="stop4" />
			<stop
   offset="1"
   stop-color="#5ea0ef"
   stop-opacity="1"
   id="stop6" />
		</linearGradient>
	<linearGradient
   inkscape:collect="always"
   xlink:href="#grad0-6"
   id="linearGradient4564"
   gradientTransform="scale(1.4335991,0.69754508)"
   x1="-9.2528748e-07"
   y1="121.31115"
   x2="31.94059"
   y2="121.31115"
   gradientUnits="userSpaceOnUse" /><linearGradient
   inkscape:collect="always"
   xlink:href="#grad0-6"
   id="linearGradient4566"
   gradientTransform="scale(1.4335991,0.69754508)"
   x1="-9.2528748e-07"
   y1="121.31115"
   x2="31.94059"
   y2="121.31115"
   gradientUnits="userSpaceOnUse" /><linearGradient
   inkscape:collect="always"
   xlink:href="#grad0-6"
   id="linearGradient4568"
   gradientTransform="scale(1.234215,0.81023158)"
   x1="-1.0747652e-06"
   y1="94.837082"
   x2="37.100505"
   y2="94.837082"
   gradientUnits="userSpaceOnUse" /></defs>
	<g
   id="g48"
   transform="translate(-21.854456,-21.859399)">
		<title
   id="title10">Page-1</title>
		<g
   id="group10232-1"
   transform="translate(27.0151,-34.0157)">
			<title
   id="title12">API Management Pricing Tier</title>
			<g
   id="group10233-2">
				<title
   id="title14">Sheet.10233</title>
				<g
   id="shape10234-3"
   transform="translate(10.9039,-28.7449)">
					<title
   id="title16">Sheet.10234</title>
					<path
   d="m 0,104.72 a 2.23781,2.17763 -180 0 0 2.24,2.18 h 41.31 a 2.23781,2.17763 -180 0 0 2.24,-2.18 V 86.8 A 2.23781,2.17763 -180 0 0 43.55,84.62 H 2.24 A 2.23781,2.17763 -180 0 0 0,86.8 Z"
   class="st1"
   id="path18"
   inkscape:connector-curvature="0"
   style="fill:url(#linearGradient4564);stroke:none;stroke-width:21.85709953;stroke-linecap:butt" />
				</g>
				<g
   id="shape10235-7"
   transform="translate(10.9039,-18.1902)">
					<title
   id="title21">Sheet.10235</title>
					<path
   d="m 0,104.72 a 2.23781,2.17763 -180 0 0 2.24,2.18 h 41.31 a 2.23781,2.17763 -180 0 0 2.24,-2.18 V 86.8 A 2.23781,2.17763 -180 0 0 43.55,84.62 H 2.24 A 2.23781,2.17763 -180 0 0 0,86.8 Z"
   class="st1"
   id="path23"
   inkscape:connector-curvature="0"
   style="fill:url(#linearGradient4566);stroke:none;stroke-width:21.85709953;stroke-linecap:butt" />
				</g>
				<g
   id="shape10236-10"
   transform="translate(10.9039)">
					<title
   id="title26">Sheet.10236</title>
					<path
   d="m 0,104.72 a 2.23781,2.17763 -180 0 0 2.24,2.18 h 41.31 a 2.23781,2.17763 -180 0 0 2.24,-2.18 V 79.02 A 2.23781,2.17763 -180 0 0 43.55,76.84 H 2.24 A 2.23781,2.17763 -180 0 0 0,79.02 Z"
   class="st1"
   id="path28"
   inkscape:connector-curvature="0"
   style="fill:url(#linearGradient4568);stroke:none;stroke-width:21.85709953;stroke-linecap:butt" />
				</g>
				<g
   id="shape10237-13"
   transform="translate(0.435024,-17.5542)">
					<title
   id="title31">Sheet.10237</title>
					<path
   d="M 12.02,78.66 A 16.9964,16.5393 -180 1 0 29.01,95.2 16.9964,16.5393 -180 0 0 12.02,78.66 Z"
   class="st2"
   id="path33"
   inkscape:connector-curvature="0"
   style="fill:#50e6ff;stroke:none;stroke-width:21.85709953;stroke-linecap:butt" />
				</g>
				<g
   id="shape10238-15"
   transform="translate(0,-12.1132)">
					<title
   id="title36">Sheet.10238</title>
					<path
   d="M 12.45,106.9 A 17.6105,17.1369 0 1 1 30.06,89.76 17.6303,17.1562 0 0 1 12.45,106.9 Z m 0,-33.08 A 16.3822,15.9417 -180 1 0 28.83,89.76 16.4021,15.961 -180 0 0 12.45,73.82 Z"
   class="st3"
   id="path38"
   inkscape:connector-curvature="0"
   style="fill:#ffffff;stroke:none;stroke-width:21.85709953;stroke-linecap:butt" />
				</g>
				<g
   id="shape10239-17"
   transform="translate(6.82164,-17.5162)">
					<title
   id="title41">Sheet.10239</title>
					<path
   d="m 6.89,84.53 a 1.59934,1.55633 0 1 1 -1.6,-1.56 1.59934,1.55633 0 0 1 1.6,1.56 z M 6.82,105.8 a 1.59934,1.55633 0 1 1 -1.59,-1.56 1.59934,1.55633 0 0 1 1.59,1.56 z m -6.77,-3.55 v -3.47 a 6.84802,6.66385 -180 0 0 2.11,1.19 6.77512,6.59292 -180 0 0 2.3,0.41 5.14044,5.00219 -180 0 0 1.19,-0.12 A 2.83199,2.75583 -180 0 0 6.5,99.93 1.50656,1.46605 -180 0 0 7.01,99.43 1.29008,1.25538 -180 0 0 7.17,98.81 1.37623,1.33922 -180 0 0 6.91,97.99 2.87175,2.79452 -180 0 0 6.18,97.33 7.58142,7.37753 -180 0 0 5.08,96.74 C 4.65,96.55 4.19,96.36 3.7,96.16 A 7.00266,6.81433 0 0 1 0.91,94.29 4.17067,4.0585 0 0 1 0,91.64 4.34076,4.22402 0 0 1 0.51,89.55 4.23915,4.12514 0 0 1 1.88,88.11 6.0616,5.89859 0 0 1 3.89,87.29 10.261,9.98503 0 0 1 6.3,87.03 a 14.5797,14.1876 0 0 1 2.21,0.15 8.79419,8.55768 0 0 1 1.77,0.46 v 3.25 A 5.24647,5.10537 -180 0 0 9.39,90.41 6.86128,6.67675 -180 0 0 8.45,90.06 7.05125,6.86162 -180 0 0 7.46,89.85 7.17496,6.982 -180 0 0 6.51,89.78 4.9615,4.82807 -180 0 0 5.4,89.89 2.8585,2.78162 -180 0 0 4.55,90.21 1.60376,1.56063 -180 0 0 4.01,90.7 a 1.18846,1.1565 -180 0 0 -0.19,0.65 1.27682,1.24249 -180 0 0 0.22,0.7 2.46087,2.39469 -180 0 0 0.6,0.59 6.31785,6.14794 -180 0 0 0.95,0.54 c 0.37,0.18 0.79,0.36 1.26,0.56 a 13.9169,13.5427 0 0 1 1.72,0.83 6.19636,6.02971 0 0 1 1.31,1 3.99394,3.88653 0 0 1 0.83,1.27 5.19566,5.05593 0 0 1 -0.22,3.84 4.12207,4.01121 0 0 1 -1.38,1.43 5.98208,5.8212 0 0 1 -2.03,0.78 11.7477,11.4317 0 0 1 -2.43,0.24 13.4354,13.0741 0 0 1 -2.5,-0.22 7.51073,7.30874 0 0 1 -2.1,-0.66 z"
   class="st3"
   id="path43"
   inkscape:connector-curvature="0"
   style="fill:#ffffff;stroke:none;stroke-width:21.85709953;stroke-linecap:butt" />
				</g>
			</g>
		</g>
	</g>
</svg>

<?xml version="1.0" encoding="UTF-8" standalone="no"?>
<!DOCTYPE svg PUBLIC "-//W3C//DTD SVG 1.1//EN" "http://www.w3.org/Graphics/SVG/1.1/DTD/svg11.dtd">
<!-- Generated by Microsoft Visio, SVG Export API Management Pricing Tier.svg Page-1 -->
<svg xmlns="http://www.w3.org/2000/svg" xmlns:xlink="http://www.w3.org/1999/xlink" xmlns:ev="http://www.w3.org/2001/xml-events"
		width="1.46618in" height="1.48467in" viewBox="0 0 105.565 106.897" xml:space="preserve" color-interpolation-filters="sRGB"
		class="st4">
	<style type="text/css">
	<![CDATA[
		.st1 {fill:url(#grad0-6);stroke:none;stroke-linecap:butt;stroke-width:21.8571}
		.st2 {fill:#50e6ff;stroke:none;stroke-linecap:butt;stroke-width:21.8571}
		.st3 {fill:#ffffff;stroke:none;stroke-linecap:butt;stroke-width:21.8571}
		.st4 {fill:none;fill-rule:evenodd;font-size:12px;overflow:visible;stroke-linecap:square;stroke-miterlimit:3}
	]]>
	</style>

	<defs id="Patterns_And_Gradients">
		<linearGradient id="grad0-6" x1="0" y1="0" x2="1" y2="0" gradientTransform="rotate(-90 0.5 0.5)">
			<stop offset="0" stop-color="#0078d4" stop-opacity="1"/>
			<stop offset="1" stop-color="#5ea0ef" stop-opacity="1"/>
		</linearGradient>
	</defs>
	<g>
		<title>Page-1</title>
		<g id="group10001-1" transform="translate(27.0151,-34.0157)">
			<title>API Management Pricing Tier</title>
			<g id="group10002-2">
				<title>Sheet.10002</title>
				<g id="shape10003-3" transform="translate(10.9039,-28.7449)">
					<title>Sheet.10003</title>
					<path d="M0 104.72 A2.23781 2.17763 -180 0 0 2.24 106.9 L43.55 106.9 A2.23781 2.17763 -180 0 0 45.79 104.72 L45.79
								 86.8 A2.23781 2.17763 -180 0 0 43.55 84.62 L2.24 84.62 A2.23781 2.17763 -180 0 0 0 86.8 L0 104.72
								 Z" class="st1"/>
				</g>
				<g id="shape10004-7" transform="translate(10.9039,-18.1902)">
					<title>Sheet.10004</title>
					<path d="M0 104.72 A2.23781 2.17763 -180 0 0 2.24 106.9 L43.55 106.9 A2.23781 2.17763 -180 0 0 45.79 104.72 L45.79
								 86.8 A2.23781 2.17763 -180 0 0 43.55 84.62 L2.24 84.62 A2.23781 2.17763 -180 0 0 0 86.8 L0 104.72
								 Z" class="st1"/>
				</g>
				<g id="shape10005-10" transform="translate(10.9039,0)">
					<title>Sheet.10005</title>
					<path d="M0 104.72 A2.23781 2.17763 -180 0 0 2.24 106.9 L43.55 106.9 A2.23781 2.17763 -180 0 0 45.79 104.72 L45.79
								 79.02 A2.23781 2.17763 -180 0 0 43.55 76.84 L2.24 76.84 A2.23781 2.17763 -180 0 0 0 79.02 L0 104.72
								 Z" class="st1"/>
				</g>
				<g id="shape10006-13" transform="translate(0.435024,-17.5542)">
					<title>Sheet.10006</title>
					<path d="M12.02 78.66 A16.9964 16.5393 -180 1 0 29.01 95.2 A16.9964 16.5393 -180 0 0 12.02 78.66 Z" class="st2"/>
				</g>
				<g id="shape10007-15" transform="translate(2.81775E-13,-12.1132)">
					<title>Sheet.10007</title>
					<path d="M12.45 106.9 A17.6105 17.1369 0 1 1 30.06 89.76 A17.6303 17.1562 0 0 1 12.45 106.9 ZM12.45 73.82 A16.3822
								 15.9417 -180 1 0 28.83 89.76 A16.4021 15.961 -180 0 0 12.45 73.82 Z" class="st3"/>
				</g>
				<g id="shape10008-17" transform="translate(6.82164,-17.5162)">
					<title>Sheet.10008</title>
					<path d="M6.89 84.53 A1.59934 1.55633 0 1 1 5.29 82.97 A1.59934 1.55633 0 0 1 6.89 84.53 ZM6.82 105.8 A1.59934
								 1.55633 0 1 1 5.23 104.24 A1.59934 1.55633 0 0 1 6.82 105.8 ZM0.05 102.25 L0.05 98.78 A6.84802 6.66385
								 -180 0 0 2.16 99.97 A6.77512 6.59292 -180 0 0 4.46 100.38 A5.14044 5.00219 -180 0 0 5.65 100.26
								 A2.83199 2.75583 -180 0 0 6.5 99.93 A1.50656 1.46605 -180 0 0 7.01 99.43 A1.29008 1.25538 -180 0
								 0 7.17 98.81 A1.37623 1.33922 -180 0 0 6.91 97.99 A2.87175 2.79452 -180 0 0 6.18 97.33 A7.58142
								 7.37753 -180 0 0 5.08 96.74 C4.65 96.55 4.19 96.36 3.7 96.16 A7.00266 6.81433 0 0 1 0.91 94.29 A4.17067
								 4.0585 0 0 1 -0 91.64 A4.34076 4.22402 0 0 1 0.51 89.55 A4.23915 4.12514 0 0 1 1.88 88.11 A6.0616
								 5.89859 0 0 1 3.89 87.29 A10.261 9.98503 0 0 1 6.3 87.03 A14.5797 14.1876 0 0 1 8.51 87.18 A8.79419
								 8.55768 0 0 1 10.28 87.64 L10.28 90.89 A5.24647 5.10537 -180 0 0 9.39 90.41 A6.86128 6.67675 -180
								 0 0 8.45 90.06 A7.05125 6.86162 -180 0 0 7.46 89.85 A7.17496 6.982 -180 0 0 6.51 89.78 A4.9615 4.82807
								 -180 0 0 5.4 89.89 A2.8585 2.78162 -180 0 0 4.55 90.21 A1.60376 1.56063 -180 0 0 4.01 90.7 A1.18846
								 1.1565 -180 0 0 3.82 91.35 A1.27682 1.24249 -180 0 0 4.04 92.05 A2.46087 2.39469 -180 0 0 4.64 92.64
								 A6.31785 6.14794 -180 0 0 5.59 93.18 C5.96 93.36 6.38 93.54 6.85 93.74 A13.9169 13.5427 0 0 1 8.57
								 94.57 A6.19636 6.02971 0 0 1 9.88 95.57 A3.99394 3.88653 0 0 1 10.71 96.84 A5.19566 5.05593 0 0
								 1 10.49 100.68 A4.12207 4.01121 0 0 1 9.11 102.11 A5.98208 5.8212 0 0 1 7.08 102.89 A11.7477 11.4317
								 0 0 1 4.65 103.13 A13.4354 13.0741 0 0 1 2.15 102.91 A7.51073 7.30874 0 0 1 0.05 102.25 Z"
							class="st3"/>
				</g>
			</g>
		</g>
	</g>
</svg>
